flaticon/gastronomy/ice-cream-10.svg

<svg xmlns="http://www.w3.org/2000/svg" width="32" height="32" viewBox="0 0 24 24">
    <path d="M 18.300781 7.460938 L 18.210938 7.15625 L 17.882812 7.15625 C 17.703125 6.453125 17.199219 5.878906 16.546875 5.597656 C 16.570312 5.460938 16.585938 5.324219 16.585938 5.183594 C 16.585938 3.90625 15.546875 2.867188 14.269531 2.867188 C 13.332031 2.867188 12.507812 3.421875 12.148438 4.253906 C 12.132812 4.253906 12.117188 4.253906 12.101562 4.253906 L 12.289062 1.996094 C 12.304688 1.820312 12.210938 1.65625 12.050781 1.582031 L 8.800781 0.0390625 C 8.589844 -0.0585938 8.339844 0.03125 8.238281 0.242188 C 8.140625 0.453125 8.230469 0.703125 8.441406 0.800781 L 11.429688 2.21875 L 11.308594 3.640625 C 10.878906 3.113281 10.226562 2.78125 9.515625 2.78125 C 8.234375 2.78125 7.195312 3.820312 7.195312 5.097656 C 7.195312 5.296875 7.226562 5.492188 7.273438 5.683594 C 6.703125 5.984375 6.269531 6.515625 6.105469 7.15625 L 5.789062 7.15625 L 5.699219 7.460938 C 5.03125 9.773438 6.851562 11.472656 7.074219 11.671875 C 7.964844 12.621094 8.8125 13.546875 9.441406 14.480469 C 9.105469 14.992188 8.925781 15.597656 8.925781 16.210938 C 8.925781 17.238281 9.429688 18.195312 10.257812 18.785156 C 10.230469 18.910156 10.210938 19.035156 10.1875 19.167969 C 10.148438 19.390625 10.105469 19.621094 10.046875 19.847656 C 9.898438 20.410156 10.003906 20.996094 10.335938 21.472656 L 8.503906 21.472656 C 8.164062 21.472656 7.847656 21.605469 7.609375 21.84375 C 7.242188 22.210938 7.136719 22.738281 7.335938 23.21875 C 7.535156 23.699219 7.980469 24 8.503906 24 L 15.660156 24 C 16.179688 24 16.628906 23.699219 16.828125 23.21875 C 17.027344 22.738281 16.921875 22.210938 16.554688 21.84375 C 16.316406 21.605469 15.996094 21.472656 15.660156 21.472656 L 13.613281 21.472656 C 13.921875 21.03125 14.039062 20.484375 13.921875 19.953125 C 13.878906 19.753906 13.855469 19.546875 13.832031 19.347656 C 13.8125 19.191406 13.792969 19.035156 13.765625 18.878906 C 14.683594 18.304688 15.238281 17.308594 15.238281 16.210938 C 15.238281 15.542969 15.027344 14.898438 14.640625 14.363281 C 15.265625 13.460938 16.109375 12.542969 16.925781 11.671875 C 17.148438 11.472656 18.96875 9.773438 18.300781 7.460938 Z M 17 7.15625 L 14.75 7.15625 C 14.75 7.152344 14.75 7.148438 14.75 7.140625 C 14.75 7.050781 14.746094 6.957031 14.734375 6.863281 C 14.726562 6.777344 14.714844 6.695312 14.699219 6.613281 C 14.699219 6.605469 14.695312 6.601562 14.695312 6.597656 C 14.707031 6.589844 14.714844 6.582031 14.726562 6.574219 C 14.773438 6.535156 14.824219 6.5 14.875 6.46875 C 14.902344 6.453125 14.929688 6.4375 14.957031 6.425781 C 14.996094 6.402344 15.035156 6.386719 15.074219 6.367188 C 15.105469 6.355469 15.136719 6.339844 15.171875 6.332031 C 15.222656 6.3125 15.28125 6.296875 15.335938 6.285156 C 15.378906 6.277344 15.421875 6.269531 15.460938 6.265625 C 15.507812 6.261719 15.550781 6.253906 15.597656 6.253906 C 15.632812 6.253906 15.667969 6.253906 15.699219 6.253906 C 15.738281 6.257812 15.773438 6.257812 15.808594 6.261719 C 15.839844 6.265625 15.871094 6.269531 15.898438 6.273438 C 16.394531 6.363281 16.808594 6.699219 17 7.15625 Z M 10.589844 7.15625 C 10.589844 7.152344 10.585938 7.144531 10.585938 7.136719 C 10.578125 7.105469 10.566406 7.078125 10.554688 7.050781 C 10.527344 6.949219 10.488281 6.851562 10.445312 6.757812 C 10.433594 6.730469 10.421875 6.703125 10.40625 6.675781 C 10.347656 6.5625 10.28125 6.449219 10.203125 6.34375 C 10.203125 6.34375 10.199219 6.339844 10.199219 6.335938 C 10.148438 6.273438 10.101562 6.210938 10.046875 6.152344 C 10.058594 6.136719 10.066406 6.117188 10.078125 6.097656 C 10.09375 6.074219 10.109375 6.050781 10.121094 6.027344 C 10.421875 5.566406 10.902344 5.234375 11.453125 5.125 C 11.453125 5.125 11.457031 5.125 11.457031 5.125 C 11.585938 5.097656 11.714844 5.082031 11.847656 5.082031 C 12.121094 5.082031 12.375 5.136719 12.613281 5.234375 C 12.652344 5.246094 12.683594 5.265625 12.722656 5.285156 C 12.796875 5.316406 12.867188 5.355469 12.933594 5.398438 C 12.96875 5.417969 13 5.4375 13.03125 5.460938 C 13.121094 5.523438 13.207031 5.59375 13.285156 5.671875 C 13.304688 5.691406 13.324219 5.714844 13.34375 5.734375 C 13.40625 5.800781 13.460938 5.867188 13.515625 5.941406 C 13.535156 5.96875 13.558594 6 13.578125 6.03125 C 13.636719 6.125 13.691406 6.21875 13.734375 6.320312 C 13.75 6.351562 13.757812 6.378906 13.765625 6.410156 C 13.796875 6.488281 13.824219 6.574219 13.84375 6.65625 C 13.855469 6.699219 13.863281 6.742188 13.871094 6.785156 C 13.890625 6.902344 13.90625 7.019531 13.90625 7.140625 C 13.90625 7.144531 13.90625 7.152344 13.90625 7.15625 Z M 14.269531 3.707031 C 15.082031 3.707031 15.742188 4.371094 15.742188 5.183594 C 15.742188 5.257812 15.738281 5.332031 15.726562 5.410156 C 15.710938 5.40625 15.691406 5.410156 15.675781 5.410156 C 15.664062 5.410156 15.652344 5.40625 15.640625 5.40625 C 15.558594 5.40625 15.472656 5.410156 15.390625 5.421875 C 15.363281 5.425781 15.339844 5.429688 15.3125 5.433594 C 15.238281 5.445312 15.164062 5.457031 15.089844 5.476562 C 15.054688 5.484375 15.019531 5.496094 14.984375 5.503906 C 14.902344 5.53125 14.824219 5.558594 14.742188 5.589844 C 14.730469 5.597656 14.714844 5.601562 14.699219 5.609375 C 14.609375 5.648438 14.519531 5.699219 14.433594 5.75 C 14.425781 5.757812 14.414062 5.761719 14.402344 5.769531 C 14.328125 5.632812 14.242188 5.503906 14.148438 5.378906 C 14.140625 5.367188 14.132812 5.355469 14.121094 5.34375 C 14.03125 5.226562 13.929688 5.121094 13.820312 5.019531 C 13.804688 5.007812 13.792969 4.992188 13.777344 4.980469 C 13.664062 4.878906 13.546875 4.789062 13.417969 4.707031 C 13.414062 4.699219 13.40625 4.695312 13.398438 4.691406 C 13.265625 4.609375 13.125 4.53125 12.976562 4.46875 C 13.234375 4.007812 13.722656 3.707031 14.269531 3.707031 Z M 8.074219 5.421875 C 8.050781 5.316406 8.039062 5.207031 8.039062 5.097656 C 8.039062 4.285156 8.699219 3.621094 9.511719 3.621094 C 10.078125 3.621094 10.582031 3.945312 10.828125 4.429688 C 10.824219 4.429688 10.816406 4.433594 10.8125 4.4375 C 10.675781 4.488281 10.542969 4.550781 10.417969 4.625 C 10.398438 4.632812 10.378906 4.644531 10.363281 4.65625 C 10.25 4.722656 10.140625 4.796875 10.039062 4.878906 C 10.015625 4.898438 9.988281 4.917969 9.964844 4.9375 C 9.875 5.015625 9.789062 5.101562 9.707031 5.191406 C 9.683594 5.222656 9.65625 5.246094 9.628906 5.277344 C 9.554688 5.367188 9.488281 5.460938 9.425781 5.558594 C 9.40625 5.589844 9.382812 5.613281 9.363281 5.644531 C 9.324219 5.625 9.28125 5.609375 9.238281 5.589844 C 9.21875 5.582031 9.199219 5.574219 9.175781 5.5625 C 9.058594 5.519531 8.941406 5.484375 8.816406 5.457031 C 8.792969 5.453125 8.769531 5.449219 8.742188 5.445312 C 8.613281 5.421875 8.480469 5.40625 8.347656 5.40625 C 8.253906 5.40625 8.164062 5.414062 8.074219 5.421875 Z M 7.9375 6.308594 C 8.042969 6.277344 8.152344 6.261719 8.261719 6.253906 C 8.273438 6.253906 8.285156 6.253906 8.296875 6.253906 C 8.410156 6.25 8.523438 6.257812 8.632812 6.28125 C 8.644531 6.285156 8.652344 6.285156 8.660156 6.289062 C 8.878906 6.335938 9.089844 6.4375 9.269531 6.582031 C 9.28125 6.589844 9.292969 6.601562 9.304688 6.609375 C 9.359375 6.65625 9.40625 6.703125 9.449219 6.753906 C 9.46875 6.777344 9.488281 6.796875 9.503906 6.816406 C 9.550781 6.878906 9.59375 6.941406 9.632812 7.011719 C 9.644531 7.03125 9.65625 7.054688 9.664062 7.074219 C 9.679688 7.101562 9.6875 7.128906 9.699219 7.160156 L 6.988281 7.160156 C 7.15625 6.75 7.511719 6.433594 7.9375 6.308594 Z M 15.957031 22.4375 C 16.144531 22.625 16.074219 22.835938 16.050781 22.898438 C 16.023438 22.957031 15.921875 23.15625 15.660156 23.15625 L 8.503906 23.15625 C 8.242188 23.15625 8.140625 22.957031 8.113281 22.898438 C 8.089844 22.835938 8.019531 22.625 8.203125 22.4375 C 8.285156 22.359375 8.390625 22.316406 8.503906 22.316406 L 15.660156 22.316406 C 15.769531 22.316406 15.878906 22.359375 15.957031 22.4375 Z M 16.359375 11.046875 L 16.324219 11.078125 C 15.402344 12.0625 14.445312 13.113281 13.765625 14.15625 L 13.585938 14.425781 L 13.804688 14.667969 C 14.1875 15.09375 14.398438 15.640625 14.398438 16.210938 C 14.398438 17.097656 13.898438 17.894531 13.101562 18.289062 L 12.78125 18.445312 L 12.882812 18.789062 C 12.9375 18.976562 12.964844 19.203125 12.996094 19.449219 C 13.023438 19.667969 13.050781 19.894531 13.101562 20.132812 C 13.171875 20.457031 13.089844 20.792969 12.878906 21.050781 C 12.664062 21.320312 12.34375 21.472656 12 21.472656 L 11.945312 21.472656 C 11.59375 21.472656 11.269531 21.3125 11.058594 21.035156 C 10.84375 20.757812 10.773438 20.402344 10.863281 20.0625 C 10.929688 19.800781 10.976562 19.550781 11.015625 19.3125 C 11.054688 19.089844 11.089844 18.882812 11.140625 18.707031 L 11.230469 18.386719 L 10.945312 18.226562 C 10.21875 17.8125 9.765625 17.042969 9.765625 16.210938 C 9.765625 15.675781 9.945312 15.171875 10.28125 14.757812 L 10.472656 14.523438 L 10.308594 14.265625 C 9.625 13.1875 8.675781 12.144531 7.675781 11.078125 L 7.640625 11.046875 C 7.625 11.035156 6.136719 9.742188 6.441406 8 L 17.5625 8 C 17.867188 9.726562 16.421875 10.992188 16.359375 11.046875 Z M 16.359375 11.046875"/>
    <path d="M 12.082031 14.738281 C 11.269531 14.738281 10.609375 15.398438 10.609375 16.210938 C 10.609375 17.023438 11.269531 17.683594 12.082031 17.683594 C 12.894531 17.683594 13.554688 17.023438 13.554688 16.210938 C 13.554688 15.398438 12.894531 14.738281 12.082031 14.738281 Z M 12.082031 16.84375 C 11.734375 16.84375 11.449219 16.558594 11.449219 16.210938 C 11.449219 15.863281 11.734375 15.578125 12.082031 15.578125 C 12.429688 15.578125 12.714844 15.863281 12.714844 16.210938 C 12.714844 16.558594 12.429688 16.84375 12.082031 16.84375 Z M 12.082031 16.84375"/>
</svg>

<svg xmlns="http://www.w3.org/2000/svg" width="32" height="32" viewBox="0 0 24 24">
    <path d="M18.3 7.46l-.09-.304h-.327a2.336 2.336 0 0 0-1.336-1.558c.023-.137.039-.274.039-.414a2.319 2.319 0 0 0-2.316-2.317c-.938 0-1.762.555-2.122 1.387h-.046l.187-2.258a.413.413 0 0 0-.238-.414L8.8.039a.426.426 0 0 0-.563.203.42.42 0 0 0 .203.559l2.989 1.418-.121 1.422a2.319 2.319 0 0 0-1.793-.86 2.32 2.32 0 0 0-2.32 2.317c0 .199.03.394.077.586-.57.3-1.003.832-1.168 1.472H5.79l-.09.305c-.668 2.312 1.153 4.012 1.375 4.21.89.95 1.739 1.876 2.367 2.81a3.163 3.163 0 0 0-.515 1.73c0 1.027.504 1.984 1.332 2.574-.028.125-.047.25-.07.383a8.76 8.76 0 0 1-.141.68 1.952 1.952 0 0 0 .289 1.625H8.504c-.34 0-.656.132-.895.37a1.242 1.242 0 0 0-.273 1.376c.2.48.644.781 1.168.781h7.156c.52 0 .969-.3 1.168-.781.2-.48.094-1.008-.273-1.375a1.262 1.262 0 0 0-.895-.371h-2.047c.309-.442.426-.989.309-1.52-.043-.2-.067-.406-.09-.605-.02-.157-.039-.313-.066-.47a3.128 3.128 0 0 0 1.472-2.667c0-.668-.21-1.313-.597-1.848.625-.902 1.468-1.82 2.285-2.691.222-.2 2.043-1.899 1.375-4.211zM17 7.157h-2.25v-.015c0-.09-.004-.184-.016-.278a2.567 2.567 0 0 0-.035-.25c0-.008-.004-.011-.004-.015l.032-.024c.046-.039.097-.074.148-.105a.827.827 0 0 1 .082-.043c.04-.024.078-.04.117-.059.031-.012.063-.027.098-.035.05-.02.11-.035.164-.047.043-.008.086-.015.125-.02.047-.003.09-.011.137-.011h.101c.04.004.074.004.11.008A1.482 1.482 0 0 1 17 7.157zm-6.41 0c0-.004-.004-.011-.004-.02-.008-.03-.02-.058-.031-.085a1.88 1.88 0 0 0-.149-.375 2.44 2.44 0 0 0-.203-.332s-.004-.004-.004-.008c-.05-.063-.097-.125-.152-.184.012-.015.02-.035.031-.054a2.081 2.081 0 0 1 1.375-.973h.004a1.87 1.87 0 0 1 .39-.043c.274 0 .528.055.766.152.04.012.07.032.11.051.074.031.144.07.21.113a1.866 1.866 0 0 1 .352.273l.059.063c.062.067.117.133.172.207.02.028.043.059.062.09.059.094.113.188.156.29a.41.41 0 0 1 .032.09c.03.077.058.163.078.245a2.15 2.15 0 0 1 .063.484v.016zm3.68-3.449a1.477 1.477 0 0 1 1.457 1.703c-.016-.004-.036 0-.051 0-.012 0-.024-.004-.035-.004a1.79 1.79 0 0 0-.25.016l-.079.012a2.236 2.236 0 0 0-.222.043c-.035.007-.07.02-.106.027a5.98 5.98 0 0 0-.242.086c-.012.008-.027.012-.043.02-.09.038-.18.09-.265.14-.008.008-.02.012-.032.02a3.183 3.183 0 0 0-.254-.391 2.618 2.618 0 0 0-.328-.36c-.015-.011-.027-.027-.043-.039a2.723 2.723 0 0 0-.359-.273c-.004-.008-.012-.012-.02-.016a3.092 3.092 0 0 0-.421-.222c.257-.461.746-.762 1.293-.762zM8.074 5.422a1.477 1.477 0 0 1 1.438-1.8c.566 0 1.07.323 1.316.808a.03.03 0 0 0-.015.008c-.137.05-.27.113-.395.187a2.646 2.646 0 0 0-.379.254c-.023.02-.05.039-.074.059-.09.078-.176.164-.258.253-.023.032-.05.055-.078.086-.074.09-.14.184-.203.282-.02.03-.043.054-.063.086-.039-.02-.082-.036-.125-.055l-.062-.027a2.723 2.723 0 0 0-.36-.106 3.09 3.09 0 0 0-.074-.012 2.214 2.214 0 0 0-.668-.023zm-.136.887c.105-.032.214-.047.324-.055h.035c.113-.004.226.004.336.027.012.004.02.004.027.008.219.047.43.149.61.293.011.008.023.02.035.027.054.047.101.094.144.145.02.023.04.043.055.062a1.688 1.688 0 0 1 .16.258c.016.028.024.055.035.086H6.99c.167-.41.523-.726.949-.851zm8.019 16.129a.42.42 0 1 1-.297.719H8.504a.42.42 0 0 1-.39-.259.42.42 0 0 1 .09-.46.432.432 0 0 1 .3-.122h7.156c.11 0 .219.043.297.122zm.402-11.391l-.035.031c-.922.985-1.879 2.035-2.558 3.078l-.18.27.219.242a2.311 2.311 0 0 1-.703 3.621l-.32.156.1.344c.056.188.083.414.114.66.027.219.055.446.106.684.07.324-.012.66-.223.918-.215.27-.535.422-.879.422h-.055c-.351 0-.675-.16-.886-.438a1.113 1.113 0 0 1-.196-.973 8.82 8.82 0 0 0 .153-.75c.039-.222.074-.43.125-.605l.09-.32-.286-.16a2.326 2.326 0 0 1-1.18-2.016c0-.535.18-1.04.516-1.453l.192-.235-.164-.257c-.684-1.079-1.633-2.121-2.633-3.188l-.035-.031C7.625 11.035 6.137 9.742 6.44 8h11.121c.305 1.727-1.14 2.992-1.203 3.047zm0 0"/>
    <path d="M12.082 14.738a1.474 1.474 0 0 0 0 2.946 1.474 1.474 0 0 0 0-2.946zm0 2.106a.635.635 0 0 1-.633-.633c0-.348.285-.633.633-.633.348 0 .633.285.633.633a.635.635 0 0 1-.633.633zm0 0"/>
</svg>
